X:148
T:Lliw'r Heulwen - The colour of the Sunshine
M:4/4
L:1/4
Q:90
C:Trad.
R:Slow air
K:G
E | G G F E | E2 B A | G B F>G | E3 E | G A G
F | E2 B A | G B F>G | E2- E>d | d>B G>F | E2
B A | G B B G | F3 E | G G F E | E2 B A | G B
F>G | E3 ||
